X:1
T: Monaghan
C:
R:Jig
Q:180
K:Em
M:6/8
L:1/16
G4E2 E2F2E2|G2E2G2 B2G2E2|G4E2 E2F2G2|F2D2F2 A2G2F2|G4E2 E2F2E2|G2E2G2 A2B2^c2|d2^c2B2 A2B2G2|F2D2F2 A2G2F2|
E2G2B2 e2f2g2|f2e2^d2 e2B2G2|E2G2B2 e2B2G2|F2D2F2 A2G2F2|E2G2B2 e2f2g2|f2e2^d2 e2=d2^c2|d2^c2B2 A2B2G2|F2D2F2 A2G2F2|
g4e2 e2f2e2|g2e2g2 b2g2e2|g4e2 e2f2g2|f2d2f2 a2f2d2|g4e2 e2f2e2|g2e2g2 b2g2e2|d2^c2B2 A2B2G2|F2D2F2 A2G2F2|
E2G2B2 E2G2B2|e2B2G2 e2B2G2|E2G2B2 E2G2B2|e2B2G2 A2F2D2|E2G2B2 G2B2e2|B2e2g2 e2g2b2|g2e2^c2 d2B2G2|F2D2F2 A2G2F2||
